docs/img/dist/icon-faq-06.svg

<svg width="15" height="22" viewBox="0 0 15 22" fill="none" xmlns="http://www.w3.org/2000/svg">
<path fill-rule="evenodd" clip-rule="evenodd" d="M3.625 0.875V1.55H10.975C11.0799 1.54847 11.1829 1.57843 11.2707 1.63601C11.3584 1.69359 11.4269 1.77615 11.4672 1.87302C11.5076 1.9699 11.518 2.07665 11.4971 2.17949C11.4762 2.28234 11.425 2.37656 11.35 2.45L9.1 4.925L9.025 5C8.88422 5.15617 8.79002 5.34867 8.75309 5.55566C8.71616 5.76265 8.73797 5.97585 8.81606 6.17108C8.89415 6.3663 9.02539 6.53573 9.19488 6.66015C9.36438 6.78457 9.56535 6.859 9.775 6.875H10.3C10.4999 6.90198 10.6864 6.99027 10.834 7.1277C10.9816 7.26513 11.0829 7.44495 11.1241 7.64238C11.1652 7.83981 11.1441 8.04514 11.0637 8.23007C10.9832 8.41501 10.8475 8.57046 10.675 8.675C10.3 8.9 10.075 9.125 10 9.425C9.95504 9.56798 9.94121 9.71892 9.95945 9.86769C9.97768 10.0165 10.0275 10.1596 10.1057 10.2875C10.1839 10.4154 10.2885 10.5251 10.4126 10.6091C10.5366 10.6932 10.6773 10.7498 10.825 10.775L11.5 10.925C11.7592 10.9594 11.9984 11.0831 12.1763 11.2747C12.3542 11.4663 12.4598 11.7139 12.475 11.975V14.225H13.15V11.6C13.15 11.3016 13.0315 11.0155 12.8205 10.8045C12.6095 10.5935 12.3234 10.475 12.025 10.475H11.8C11.6231 10.4617 11.4541 10.3965 11.3142 10.2874C11.1743 10.1784 11.0697 10.0304 11.0136 9.86213C10.9575 9.69385 10.9524 9.51274 10.9989 9.34156C11.0454 9.17038 11.1415 9.01676 11.275 8.9L12.025 8.375C12.1636 8.29597 12.2762 8.17846 12.3494 8.0367C12.4225 7.89494 12.453 7.73501 12.4372 7.57628C12.4213 7.41756 12.3597 7.26683 12.26 7.14237C12.1602 7.0179 12.0265 6.92503 11.875 6.875L11.575 6.8L10.825 6.65C10.634 6.60085 10.4593 6.50234 10.3183 6.36435C10.1774 6.22637 10.0752 6.05376 10.022 5.86383C9.96886 5.6739 9.96654 5.47333 10.0153 5.28222C10.0641 5.09112 10.1623 4.9162 10.3 4.775L11.725 3.275C11.8842 3.08253 11.9928 2.85337 12.0409 2.6083C12.0891 2.36323 12.0753 2.11001 12.0008 1.87162C11.9263 1.63323 11.7935 1.41722 11.6143 1.24318C11.4352 1.06914 11.2154 0.942586 10.975 0.875H3.625Z" fill="#202020" stroke="#202020" stroke-width="0.75"/>
<path fill-rule="evenodd" clip-rule="evenodd" d="M12.4 15.35C12.625 15.05 12.775 14.75 12.775 14.3H12.1V15.05H13.525V14.3H12.775C12.775 14.75 12.625 15.05 12.4 15.35ZM10.375 15.35C10.2451 15.2092 10.145 15.0436 10.0805 14.8632C10.0161 14.6828 9.98872 14.4912 10 14.3H9.25V15.05H10.675V14.3H9.925C9.925 14.75 10.15 15.05 10.375 15.35ZM11.5 14V14.375V14ZM1 20.75H3.55V1.25H3.25C2.65326 1.25 2.08097 1.48705 1.65901 1.90901C1.23705 2.33097 1 2.90326 1 3.5V20.75Z" stroke="#202020" stroke-width="1.425"/>
<path fill-rule="evenodd" clip-rule="evenodd" d="M1 14.75H3.25V16.175H1V14.75Z" fill="#202020"/>
<path d="M5.5 18.5C6.32843 18.5 7 17.8284 7 17C7 16.1716 6.32843 15.5 5.5 15.5C4.67157 15.5 4 16.1716 4 17C4 17.8284 4.67157 18.5 5.5 18.5Z" stroke="#D61635" stroke-width="1.425"/>
<path fill-rule="evenodd" clip-rule="evenodd" d="M4.07501 11.6001H5.57501V13.0251H4.07501V11.6001ZM4.07501 8.8251H5.57501V10.2501H4.07501V8.8251ZM4.07501 6.1251H5.57501V7.5501H4.07501V6.1251ZM4.07501 3.3501H5.57501V4.7751H4.07501V3.3501Z" fill="#202020"/>
</svg>

<svg width="15" height="22" fill="none" xmlns="http://www.w3.org/2000/svg"><path fill-rule="evenodd" clip-rule="evenodd" d="M3.625.875v.675h7.35a.525.525 0 01.375.9L9.1 4.925 9.025 5a1.125 1.125 0 00.75 1.875h.525a.975.975 0 01.375 1.8c-.375.225-.6.45-.675.75a1.05 1.05 0 00.825 1.35l.675.15a1.125 1.125 0 01.975 1.05v2.25h.675V11.6a1.125 1.125 0 00-1.125-1.125H11.8a.9.9 0 01-.525-1.575l.75-.525a.825.825 0 00-.15-1.5l-.3-.075-.75-.15a1.125 1.125 0 01-.525-1.875l1.425-1.5a1.499 1.499 0 00-.75-2.4h-7.35z" fill="#202020" stroke="#202020" stroke-width=".75"/><path clip-rule="evenodd" d="M12.4 15.35c.225-.3.375-.6.375-1.05H12.1v.75h1.425v-.75h-.75c0 .45-.15.75-.375 1.05zm-2.025 0A1.426 1.426 0 0110 14.3h-.75v.75h1.425v-.75h-.75c0 .45.225.75.45 1.05zM11.5 14v.375V14zM1 20.75h2.55V1.25h-.3A2.25 2.25 0 001 3.5v17.25z" stroke="#202020" stroke-width="1.425"/><path fill-rule="evenodd" clip-rule="evenodd" d="M1 14.75h2.25v1.425H1V14.75z" fill="#202020"/><path d="M5.5 18.5a1.5 1.5 0 100-3 1.5 1.5 0 000 3z" stroke="#D61635" stroke-width="1.425"/><path fill-rule="evenodd" clip-rule="evenodd" d="M4.075 11.6h1.5v1.425h-1.5V11.6zm0-2.775h1.5v1.425h-1.5V8.825zm0-2.7h1.5V7.55h-1.5V6.125zm0-2.775h1.5v1.425h-1.5V3.35z" fill="#202020"/></svg>
